X:1
T:In paradisum
T:Joachim Kelecom (°1977)
T:for Paula
T:In paradisum
T:©
T:©
T:©
T:©
T:©
T:©
C:Joachim Kelecom (°1977)
Z:©
%%score [ 1 2 3 4 ]
L:1/8
Q:1/4=120
M:2/2
K:D
V:1 treble nm="Soprano" snm="S"
V:2 treble nm="Alto" snm="A"
V:3 treble-8 nm="Tenor" snm="T"
V:4 bass nm="Bass" snm="B"
V:1
 z4 A4 | B4 d4 | e4 g4- | g8 | z4 B4 | d4 e4 | f4 f4- | f8 | z8 | z4 e4 | d2 B2 d4 | e8 | %12
w: In|pa- ra-|di- sum|_|in|pa- ra-|di- sum|_||in|pa- ra- di-|sum|
 z2 e2 g2 f2 | d4 c4- | c2 B2 B4 | z8 | z4 (d4 | e4) g4 | g8 | f6 d2 | (d8 | !fermata!c8) || z8 | %23
w: de- du- cant|te an-|* ge- li||an-|* ge-|li,|an- ge-|li|_||
 z2 g2 (3g2 f2 d2 | =c4 c4 | z2 B2 A4 | =c4 e4 | f8 | f4 f4 | e2 d2 c2 A2 | B6 B2 | B8 | z8 | B8- | %34
w: in tu- o ad-|ven- tu|in tu-|o ad-|ven-|tu sus-|ci- pi- ant te|mar- ty-|res.||Et|
 B8 | =c8- | c8 | d8- | d8- | d8 | d8- | d8 | d8 | (3d2 d2 d2 g4- | g8 | f8- | f8 | e8- | e8 | %49
w: _|per-||du-|||cant|_|te|in ci- vi- ta-||tem|_|sanc-||
 d8- | d8 | c8- | c8 | B8- | B8 | B8- | B8 | B8- | !fermata!B8 ||[K:C][M:9/8] z9 | %60
w: tam|_|Ie-||ru-||sa-||lem.|_||
 (2:3:2ec (2:3:2fe (2:3:2cd | (2:3:2ec (2:3:2fe (2:3:2cd | (2:3:2ec (2:3:2fe (2:3:2cd | %63
w: Cho- rus an- ge- lo- rum,|cho- rus an- ge- lo- rum,|cho- rus an- ge- lo- rum,|
 (2:3:2ec (2:3:2fe (2:3:2cd | (2:3:2ec (2:3:2fe (2:3:2cd | (2:3:2ec (2:3:2fe (2:3:2cd | %66
w: cho- rus an- ge- lo- rum,|cho- rus an- ge- lo- rum,|cho- rus an- ge- lo- rum,|
 (2:3:2ec (2:3:2fe (2:3:2cd | (2:3:2ec (2:3:2fe (2:3:2cd | (2:3:2ec (2:3:2fe (2:3:2cd | %69
w: cho- rus an- ge- lo- rum,|cho- rus an- ge- lo- rum,|cho- rus an- ge- lo- rum,|
 (2:3:2ec (2:3:2fe (2:3:2cd | (f3 e3) d3 | c3 d3 !fermata!d3 ||[M:2/2] B2 c2 (3(d2 e2) c2 | A8 | %74
w: cho- rus an- ge- lo- rum,|te _ sus-|ci- pi- at.|Et cum La- * za-|ro|
 (3c2 (B2 G2) A2 G2 | F8 | F8 | (A8 | G8) | G8 | G8 | A8 | (A8 | B8) | G8 | G8 | G8 |] %87
w: quon- dam _ pau- pe-|re|ae-|ter-||nam|ha-|be-|as|_|re-|qui-|em.|
V:2
 z8 | A4 A2 B2 | d4 d4- | d8 | z8 | A4 B2 c2 | d4 d4- | d8 | z8 | z8 | z2 A2 A2 B2 | d4 d4 | %12
w: |In pa- ra-|di- sum|_||in pa- ra-|di- sum|_|||in pa- ra-|di- sum|
 z2 d2 d2 d2 | B4 G4- | G2 G2 G4 | A4 (B2 d2) | d8- | d8- | d8 | d6 B2 | (A8 | !fermata!A8) || E8 | %23
w: de- du- cant|te an-|* ge- li,|an- ge- *|li,|_||an- ge-|li|_|In|
 G8 | G8 | G8 | G8 | A8 | G4 G4 | G2 G2 G2 G2 | F6 E2 | ^D8 | z4 F4- | F4 E4- | E4 G4- | G4 F4- | %36
w: tu-|o|ad-|ven-||tu sus-|ci- pi- ant te|mar- ty-|res.|Et|_ per-|* du-|* cant|
 F4 A4- | A4 B4- | B4 G4- | G4 A4- | A4 G4- | G8 | A8 | z8 | (3B2 B2 B2 d4 | B8 | B8 | B8 | A8- | %49
w: _ te,|_ et|_ per-|* du-|* cant|_|te||in ci- vi- ta-|tem|sanc-|tam|sanc-|
 A8 | A8 | G8- | G8 | F8- | F8 | (E8 | G8) | G8- | !fermata!G8 ||[K:C][M:9/8] z9 | z9 | G3 c3 (A3 | %62
w: |tam|Ie-||ru-||sa-||lem.|_|||Cho- rus an-|
 G3) F3 (G3 | A3) G6 | G3 c3 (A3 | G3) F3 (G3 | A3) G6 | G3 c3 (A3 | G3) F3 (G3 | A3) G6 | G6 G3 | %71
w: * ge- lo-|* rum,|Cho- rus an-|* ge- lo-|* rum,|Cho- rus an-|* ge- lo-|* rum,|te sus-|
 G3 G3 !fermata!G3 ||[M:2/2] z8 | z8 | z8 | z8 | z2 (D2 F4) | (F8 | E8) | D8 | z2 (D2 G4) | F8 | %82
w: ci- pi- at.|||||ae- *|ter-||nam|ha- *|be-|
 (F8 | G8) | G8 | E8 | D8 |] %87
w: as|_|re-|qui-|em.|
V:3
 z8 | F4 F2 G2 | A4 B4- | B8 | z8 | D4 F2 A2 | B4 B4- | B8 | z8 | z8 | z2 F2 F2 A2 | A4 A4 | %12
w: |In pa- ra-|di- sum|_||in pa- ra-|di- sum|_|||in pa- ra-|di- sum|
 z2 B2 B2 B2 | B4 d4- | d2 d2 d4 | z8 | z4 A4- | A4 B4 | B8 | c6 d2 | (e8 | !fermata!B8) || z8 | %23
w: de- du- cant|te an-|* ge- li,||an-|* ge-|li,|an- ge-|li|_||
 z2 e2 (3e2 d2 B2 | d4 e4 | z2 d2 =c4 | e4 d4 | d8 | B4 B4 | B2 B2 A2 G2 | F6 F2 | F8 | z8 | %33
w: in tu- o ad-|ven- tu|in tu-|o ad-|ven-|tu sus-|ci- pi- ant te|mar- ty-|res.||
 z4 ^d4- | d4 e4- | e4 e4- | e4 d4- | d4 =c4- | c4 B4- | B4 d4- | d4 e4- | e4 d4 | e8 | z8 | %44
w: Et|_ per-|* du-|* cant|_ te,|_ et|_ per-|* du-|* cant|te||
 (3g2 f2 d2 =c2 B2 | d8 | e8 | d8 | c8 | c8 | B8 | (B8 | A8) | (A8 | G8) | (A8 | B8) | d8- | %58
w: in ci- vi- ta- tem|sanc-|tam,|sanc-|tam,|sanc-|tam|Ie-||ru-||sa-||lem.|
 !fermata!d8 ||[K:C][M:9/8] (Gc)A (AG)F (GA)G | (Gc)A (AG)F (GA)G | (Gc)A (AG)F (GA)G | %62
w: _|Cho- * rus an- * ge- lo- * rum,|cho- * rus an- * ge- lo- * rum,|cho- * rus an- * ge- lo- * rum,|
 (Gc)A (AG)F (GA)G | (Gc)A (AG)F (GA)G | (Gc)A (AG)F (GA)G | (Gc)A (AG)F (GA)G | %66
w: cho- * rus an- * ge- lo- * rum,|cho- * rus an- * ge- lo- * rum,|cho- * rus an- * ge- lo- * rum,|cho- * rus an- * ge- lo- * rum,|
 (Gc)A (AG)F (GA)G | (Gc)A (AG)F (GA)G | (Gc)A (AG)F (GA)G | (Gc)A (AG)F (GA)G | d6 c3 | %71
w: cho- * rus an- * ge- lo- * rum,|cho- * rus an- * ge- lo- * rum,|cho- * rus an- * ge- lo- * rum,|cho- * rus an- * ge- lo- * rum,|te sus-|
 A3 c3 !fermata!B3 ||[M:2/2] z8 | z8 | z8 | z8 | z2 (_B2 d4) | c8- | c8 | c8 | z2 (_B2 d4) | d8 | %82
w: ci- pi- at.|||||ae- *|ter-||nam|ha- *|be-|
 (f8 | e8) | d8 | c8 | B8 |] %87
w: as|_|re-|qui-|em.|
V:4
 D,8- | D,8- | D,8 | F,8- | F,8- | F,8 | G,8- | G,8- | G,8 | A,8 | A,8- | A,8 | z2 A,,2 A,,2 A,,2 | %13
w: In|_||pa-|||ra-|||di-|sum|_|de- du- cant|
 A,,4 G,,4- | G,,2 G,,2 G,,4 | z8 | z4 (G,,4 | A,,4) A,,4 | E,,8 | F,,6 G,,2 | (A,,8 | %21
w: te an-|* ge- li,||an-|* ge-|li,|an- ge-|li|
 !fermata!A,,8) || G,,8 | G,,8 | A,,8 | B,,8 | =C,8 | D,8 | E,8 | G,2 G,2 G,,2 G,,2 | B,,6 B,,2 | %31
w: _|In|tu-|o|ad-|ven-|tu|sus-|ci- pi- ant te|mar- ry-|
 B,,8 | B,,8- | B,,8 | =C,8- | C,8 | D,8- | D,8- | D,8 | D,8- | D,8 | D,8- | D,8 | z8 | %44
w: res.|Et|_|per-||du-|||cant|_|te|_||
 (3G,,2 G,,2 G,,2 G,,2 G,,2 | A,,8- | A,,8 | B,,8- | B,,8 | C,8- | C,8 | D,8- | D,8 | E,8- | E,8 | %55
w: in ci- vi- ta- tem|sanc-||tam|_|Ie-||ru-||sa-||
 =C,8- | C,8 | G,,8- | !fermata!G,,8 ||[K:C][M:9/8] z9 | z9 | z9 | G,,6- G,,3 | C,6- C,3 | %64
w: lem.|_||||||Cho- *||
 A,,6- A,,3 | G,,6- G,,3 | F,,6- F,,3 | G,,6- G,,3 | A,,6- A,,3 | G,,6- G,,3 | (G,,3 A,,3) B,,3 | %71
w: rus _|an- *|ge- *|lo- *||rum, _|te _ sus-|
 C,3 D,3 !fermata!G,,3 ||[M:2/2] z8 | z8 | z8 | z8 | _B,,8 | (F,,8 | G,,8) | A,,8 | _B,,8 | C,8 | %82
w: ci- pi- at.|||||ae-|ter-||nam|ha-|be-|
 (D,8 | C,8) | G,,8 | G,,8 | G,,8 |] %87
w: as|_|re-|qui-|em.|

